icon/carro.svg

<?xml version="1.0" encoding="UTF-8" standalone="no"?>
<!-- Generator: Adobe Illustrator 19.0.0, SVG Export Plug-In . SVG Version: 6.00 Build 0)  -->

<svg
   xmlns:dc="http://purl.org/dc/elements/1.1/"
   xmlns:cc="http://creativecommons.org/ns#"
   xmlns:rdf="http://www.w3.org/1999/02/22-rdf-syntax-ns#"
   xmlns:svg="http://www.w3.org/2000/svg"
   xmlns="http://www.w3.org/2000/svg"
   xmlns:sodipodi="http://sodipodi.sourceforge.net/DTD/sodipodi-0.dtd"
   xmlns:inkscape="http://www.inkscape.org/namespaces/inkscape"
   version="1.1"
   id="Layer_1"
   x="0px"
   y="0px"
   viewBox="0 0 407.86441 407.86441"
   xml:space="preserve"
   inkscape:version="0.91 r13725"
   sodipodi:docname="carro.svg"
   width="407.86441"
   height="407.86441"><metadata
     id="metadata4853"><rdf:RDF><cc:Work
         rdf:about=""><dc:format>image/svg+xml</dc:format><dc:type
           rdf:resource="http://purl.org/dc/dcmitype/StillImage" /><dc:title></dc:title></cc:Work></rdf:RDF></metadata><defs
     id="defs4851" /><sodipodi:namedview
     pagecolor="#ffffff"
     bordercolor="#666666"
     borderopacity="1"
     objecttolerance="10"
     gridtolerance="10"
     guidetolerance="10"
     inkscape:pageopacity="0"
     inkscape:pageshadow="2"
     inkscape:window-width="1366"
     inkscape:window-height="705"
     id="namedview4849"
     showgrid="false"
     inkscape:zoom="0.4609375"
     inkscape:cx="102.22121"
     inkscape:cy="149.78236"
     inkscape:window-x="-8"
     inkscape:window-y="-8"
     inkscape:window-maximized="1"
     inkscape:current-layer="Layer_1"
     fit-margin-top="0"
     fit-margin-left="0"
     fit-margin-right="0"
     fit-margin-bottom="0" /><circle
     style="fill:#e57b73;fill-opacity:0.54666668"
     cx="203.93221"
     cy="203.93221"
     r="203.93221"
     id="circle4793" /><g
     id="g5984"
     transform="translate(-52.067795,-43.017288)"><path
       id="path4797"
       d="m 321.51,312.889 -131.022,0 c -11.374,0 -21.016,-8.363 -22.626,-19.623 l -13.269,-92.887 c -6.528,-45.708 28.937,-86.6 75.109,-86.6 l 52.596,0 c 46.171,0 81.637,40.893 75.109,86.6 l -13.269,92.887 c -1.61,11.26 -11.254,19.623 -22.628,19.623 z"
       style="fill:#ffc61b"
       inkscape:connector-curvature="0" /><path
       id="path4799"
       d="m 282.298,113.778 -26.298,0 0,199.111 65.51,0 c 11.374,0 21.018,-8.364 22.626,-19.623 l 13.269,-92.887 c 6.53,-45.708 -28.937,-86.601 -75.107,-86.601 z"
       style="fill:#eaa22f"
       inkscape:connector-curvature="0" /><g
       id="g4801"><path
         id="path4803"
         d="m 241.778,139.174 -4.634,0 c -33.106,0 -58.535,29.322 -53.853,62.093 l 4.001,28.012 54.486,0 0,-90.105 z"
         style="fill:#38c6d9"
         inkscape:connector-curvature="0" /><path
         id="path4805"
         d="m 274.856,139.174 -4.634,0 0,90.105 54.486,0 4.001,-28.012 c 4.681,-32.771 -20.749,-62.093 -53.853,-62.093 z"
         style="fill:#38c6d9"
         inkscape:connector-curvature="0" /></g><rect
       id="rect4807"
       height="75.851997"
       width="75.851997"
       style="fill:#eaa22f"
       y="237.037"
       x="218.07401" /><rect
       id="rect4809"
       height="75.851997"
       width="37.925999"
       style="fill:#ff5419"
       y="237.037"
       x="256" /><polygon
       id="polygon4811"
       points="202.928,271.591 171.529,302.99 171.529,258.586 161.185,258.586 161.185,302.99 129.786,271.591 122.473,278.904 153.872,310.303 109.468,310.303 109.468,320.646 153.872,320.646 122.473,352.046 129.786,359.358 161.185,327.959 161.185,372.364 171.529,372.364 171.529,327.959 202.928,359.358 210.241,352.046 178.841,320.646 223.246,320.646 223.246,310.303 178.841,310.303 210.241,278.904 "
       style="fill:#b54324" /><path
       id="path4813"
       d="m 166.357,380.121 c -35.647,0 -64.646,-29 -64.646,-64.646 0,-35.646 29,-64.646 64.646,-64.646 35.646,0 64.646,29 64.646,64.646 0,35.646 -29.001,64.646 -64.646,64.646 z m 0,-113.778 c -27.091,0 -49.131,22.04 -49.131,49.131 0,27.091 22.04,49.131 49.131,49.131 27.091,0 49.131,-22.04 49.131,-49.131 0,-27.09 -22.04,-49.131 -49.131,-49.131 z"
       style="fill:#d35933"
       inkscape:connector-curvature="0" /><polygon
       id="polygon4815"
       points="382.214,271.591 350.815,302.99 350.815,258.586 340.471,258.586 340.471,302.99 309.072,271.591 301.759,278.904 333.159,310.303 288.754,310.303 288.754,320.646 333.159,320.646 301.759,352.046 309.072,359.358 340.471,327.959 340.471,372.364 350.815,372.364 350.815,327.959 382.214,359.358 389.527,352.046 358.128,320.646 402.532,320.646 402.532,310.303 358.128,310.303 389.527,278.904 "
       style="fill:#8e2d16" /><path
       id="path4817"
       d="m 345.643,380.121 c -35.647,0 -64.646,-29 -64.646,-64.646 0,-35.646 29,-64.646 64.646,-64.646 35.646,0 64.646,29 64.646,64.646 0,35.646 -28.999,64.646 -64.646,64.646 z m 0,-113.778 c -27.091,0 -49.131,22.04 -49.131,49.131 0,27.091 22.04,49.131 49.131,49.131 27.091,0 49.131,-22.04 49.131,-49.131 0,-27.09 -22.04,-49.131 -49.131,-49.131 z"
       style="fill:#b54324"
       inkscape:connector-curvature="0" /></g><g
     id="g4819"
     transform="translate(-52.067795,-43.017288)" /><g
     id="g4821"
     transform="translate(-52.067795,-43.017288)" /><g
     id="g4823"
     transform="translate(-52.067795,-43.017288)" /><g
     id="g4825"
     transform="translate(-52.067795,-43.017288)" /><g
     id="g4827"
     transform="translate(-52.067795,-43.017288)" /><g
     id="g4829"
     transform="translate(-52.067795,-43.017288)" /><g
     id="g4831"
     transform="translate(-52.067795,-43.017288)" /><g
     id="g4833"
     transform="translate(-52.067795,-43.017288)" /><g
     id="g4835"
     transform="translate(-52.067795,-43.017288)" /><g
     id="g4837"
     transform="translate(-52.067795,-43.017288)" /><g
     id="g4839"
     transform="translate(-52.067795,-43.017288)" /><g
     id="g4841"
     transform="translate(-52.067795,-43.017288)" /><g
     id="g4843"
     transform="translate(-52.067795,-43.017288)" /><g
     id="g4845"
     transform="translate(-52.067795,-43.017288)" /><g
     id="g4847"
     transform="translate(-52.067795,-43.017288)" /></svg>

<?xml version="1.0" encoding="iso-8859-1"?>
<!-- Generator: Adobe Illustrator 19.0.0, SVG Export Plug-In . SVG Version: 6.00 Build 0)  -->
<svg version="1.1" id="Layer_1" xmlns="http://www.w3.org/2000/svg" xmlns:xlink="http://www.w3.org/1999/xlink" x="0px" y="0px"
	 viewBox="0 0 512 512" style="enable-background:new 0 0 512 512;" xml:space="preserve">
<circle style="fill:#273B7A;" cx="256" cy="256" r="256"/>
<path style="fill:#121149;" d="M273.158,511.414c116.207-7.692,211.215-92.912,233.755-204.419L335.286,135.366L208.02,261.027
	l-71.404,3.732l-21.092,24.045l-3.732,54.019l7.239,8.971l2.213,9.942L273.158,511.414z"/>
<path style="fill:#FFC61B;" d="M321.51,312.889H190.488c-11.374,0-21.016-8.363-22.626-19.623l-13.269-92.887
	c-6.528-45.708,28.937-86.6,75.109-86.6h52.596c46.171,0,81.637,40.893,75.109,86.6l-13.269,92.887
	C342.528,304.526,332.884,312.889,321.51,312.889z"/>
<path style="fill:#EAA22F;" d="M282.298,113.778H256v199.111h65.51c11.374,0,21.018-8.364,22.626-19.623l13.269-92.887
	C363.935,154.671,328.468,113.778,282.298,113.778z"/>
<g>
	<path style="fill:#38C6D9;" d="M241.778,139.174h-4.634c-33.106,0-58.535,29.322-53.853,62.093l4.001,28.012h54.486V139.174z"/>
	<path style="fill:#38C6D9;" d="M274.856,139.174h-4.634v90.105h54.486l4.001-28.012C333.39,168.496,307.96,139.174,274.856,139.174
		z"/>
</g>
<rect x="218.074" y="237.037" style="fill:#EAA22F;" width="75.852" height="75.852"/>
<rect x="256" y="237.037" style="fill:#FF5419;" width="37.926" height="75.852"/>
<polygon style="fill:#B54324;" points="223.246,310.303 178.841,310.303 210.241,278.904 202.928,271.591 171.529,302.99 
	171.529,258.586 161.185,258.586 161.185,302.99 129.786,271.591 122.473,278.904 153.872,310.303 109.468,310.303 109.468,320.646 
	153.872,320.646 122.473,352.046 129.786,359.358 161.185,327.959 161.185,372.364 171.529,372.364 171.529,327.959 
	202.928,359.358 210.241,352.046 178.841,320.646 223.246,320.646 "/>
<path style="fill:#D35933;" d="M166.357,380.121c-35.647,0-64.646-29-64.646-64.646s29-64.646,64.646-64.646
	s64.646,29,64.646,64.646S202.002,380.121,166.357,380.121z M166.357,266.343c-27.091,0-49.131,22.04-49.131,49.131
	c0,27.091,22.04,49.131,49.131,49.131s49.131-22.04,49.131-49.131C215.488,288.384,193.448,266.343,166.357,266.343z"/>
<polygon style="fill:#8E2D16;" points="402.532,310.303 358.128,310.303 389.527,278.904 382.214,271.591 350.815,302.99 
	350.815,258.586 340.471,258.586 340.471,302.99 309.072,271.591 301.759,278.904 333.159,310.303 288.754,310.303 288.754,320.646 
	333.159,320.646 301.759,352.046 309.072,359.358 340.471,327.959 340.471,372.364 350.815,372.364 350.815,327.959 
	382.214,359.358 389.527,352.046 358.128,320.646 402.532,320.646 "/>
<path style="fill:#B54324;" d="M345.643,380.121c-35.647,0-64.646-29-64.646-64.646s29-64.646,64.646-64.646
	s64.646,29,64.646,64.646S381.29,380.121,345.643,380.121z M345.643,266.343c-27.091,0-49.131,22.04-49.131,49.131
	c0,27.091,22.04,49.131,49.131,49.131c27.091,0,49.131-22.04,49.131-49.131C394.774,288.384,372.734,266.343,345.643,266.343z"/>
<g>
</g>
<g>
</g>
<g>
</g>
<g>
</g>
<g>
</g>
<g>
</g>
<g>
</g>
<g>
</g>
<g>
</g>
<g>
</g>
<g>
</g>
<g>
</g>
<g>
</g>
<g>
</g>
<g>
</g>
</svg>
